packages/kaspersky-hexa-ui-icons/src/iconsSVGs/28x20/FlagEr.svg

<svg width="28" height="20" viewBox="0 0 28 20" fill="none" xmlns="http://www.w3.org/2000/svg">
<g clip-path="url(#clip0_5138_732)">
<rect width="28" height="20" rx="2" fill="white"/>
<mask id="mask0_5138_732" style="mask-type:luminance" maskUnits="userSpaceOnUse" x="0" y="0" width="28" height="20">
<rect width="28" height="20" rx="2" fill="white"/>
</mask>
<g mask="url(#mask0_5138_732)">
<path fill-rule="evenodd" clip-rule="evenodd" d="M28 0V10H0V0H28Z" fill="#29C53F"/>
<path fill-rule="evenodd" clip-rule="evenodd" d="M28 10V20.6667H0V10H28Z" fill="#579DED"/>
<path fill-rule="evenodd" clip-rule="evenodd" d="M0 20L28 10L0 0V20Z" fill="#F42D56"/>
<path d="M12 10.0003C12 8.1595 10.5078 6.66653 8.66699 6.66635C6.82604 6.66635 5.33301 8.15939 5.33301 10.0003C5.33318 11.8411 6.82615 13.3333 8.66699 13.3333V14.6664L8.42676 14.6605C6.0406 14.5397 4.12701 12.6266 4.00586 10.2406L4 10.0003C4 7.42301 6.08966 5.33334 8.66699 5.33334L8.90723 5.3392C11.3728 5.46439 13.333 7.50368 13.333 10.0003L13.3271 10.2406C13.202 12.706 11.1635 14.6662 8.66699 14.6664V13.3333C10.5077 13.3332 11.9998 11.841 12 10.0003Z" fill="#FFC63C"/>
<circle cx="8.00001" cy="8.66667" r="0.666667" fill="#FFC63C"/>
<circle cx="9.33332" cy="9.33332" r="0.666667" fill="#FFC63C"/>
<circle cx="8.66667" cy="8.00001" r="0.666667" fill="#FFC63C"/>
<circle cx="8.00001" cy="10" r="0.666667" fill="#FFC63C"/>
<circle cx="9.33332" cy="10.6667" r="0.666667" fill="#FFC63C"/>
<circle cx="8.00001" cy="11.3333" r="0.666667" fill="#FFC63C"/>
<circle cx="9.33332" cy="12" r="0.666667" fill="#FFC63C"/>
</g>
</g>
<defs>
<clipPath id="clip0_5138_732">
<rect width="28" height="20" fill="white"/>
</clipPath>
</defs>
</svg>

<svg xmlns="http://www.w3.org/2000/svg" width="28" height="20" fill="none" viewBox="0 0 28 20"><g clip-path="url(#a)"><rect width="28" height="20" fill="#fff" rx="2"/><mask id="b" width="28" height="20" x="0" y="0" maskUnits="userSpaceOnUse" style="mask-type:luminance"><rect width="28" height="20" fill="#fff" rx="2"/></mask><g mask="url(#b)"><path fill="#29c53f" fill-rule="evenodd" d="M28 0v10H0V0z" clip-rule="evenodd"/><path fill="#579ded" fill-rule="evenodd" d="M28 10v10.6667H0V10z" clip-rule="evenodd"/><path fill="#f42d56" fill-rule="evenodd" d="m0 20 28-10L0 0z" clip-rule="evenodd"/><path fill="#ffc63c" d="M12 10.0003c0-1.8408-1.4922-3.3338-3.333-3.334-1.841 0-3.334 1.493-3.334 3.334.0002 1.8408 1.4932 3.333 3.334 3.333v1.3331l-.2402-.0059c-2.3862-.1208-4.2998-2.0339-4.421-4.4199L4 10.0003c0-2.5773 2.0897-4.667 4.667-4.667l.2402.0059c2.4656.1252 4.4258 2.1645 4.4258 4.6611l-.0059.2403c-.1251 2.4654-2.1636 4.4256-4.6601 4.4258v-1.3331c1.8407-.0001 3.3328-1.4923 3.333-3.333"/><circle cx="8" cy="9" r="1" fill="#ffc63c"/><circle cx="9" cy="9" r="1" fill="#ffc63c"/><circle cx="9" cy="8" r="1" fill="#ffc63c"/><circle cx="8" cy="10" r="1" fill="#ffc63c"/><circle cx="9" cy="11" r="1" fill="#ffc63c"/><circle cx="8" cy="11" r="1" fill="#ffc63c"/><circle cx="9" cy="12" r="1" fill="#ffc63c"/></g></g><defs><clipPath id="a"><path fill="#fff" d="M0 0h28v20H0z"/></clipPath></defs></svg>
